!!!OTL: Meiheizi ku
!!!ARE: Asia, China,ÿLiaoning Fushun
!! III, 224
!!!SCT: C1735
!!!YEM: Copyright 1995, estate of Helmut Schaffrath.
**kern
*ICvox
*Ivox
*M4/4
*k[b-]
*F:
{8dd
8dd
8ee
8dd
4cc
8a
8cc}
=1
{4gg
8.ff
16dd
4.cc
8r}
=2
{8dd
8dd
8dd
8ff
8dd
8cc
4a}
=3
{4dd
8.cc
16a
4.g
8r}
=4
{8f
8f
8g
8f
4d
4f}
=5
{8.g
16f
8g
8a
4.cc
8a}
=6
{8.dd
16gg
8ff
8dd
4cc
8cc
8a
=7
8.g
16f
8g
8a
4.cc
8r}
==
!!!AGN: Haozi
!!!AMT: simple quadruple
!!!AIN: vox
!!!EED: Helmut Schaffrath
!!!EEV: 1.0
*-
